projects/oblique/icons/Camera.svg

<?xml version="1.0" encoding="UTF-8"?><svg id="a" xmlns="http://www.w3.org/2000/svg" viewBox="0 0 24 24"><path d="M16.97174,3.25l-1.72174-2.00732c-.36621-.42676-.89941-.67188-1.46289-.67188h-3.57422c-.56348,0-1.09668.24512-1.46289.67188l-1.72174,2.00732H1.25v17.5h21.5V3.25h-5.77826ZM9.88867,2.21924c.08105-.09424.19922-.14844.32422-.14844h3.57422c.125,0,.24316.0542.32422.14844l.88428,1.03076h-5.99121l.88428-1.03076ZM21.25,19.25H2.75V4.75h18.5v14.5ZM12,7.11426c-2.70215,0-4.90039,2.19189-4.90039,4.88574s2.19824,4.88525,4.90039,4.88525,4.90039-2.19141,4.90039-4.88525-2.19824-4.88574-4.90039-4.88574ZM12,15.38526c-1.875,0-3.40039-1.51855-3.40039-3.38525s1.52539-3.38574,3.40039-3.38574,3.40039,1.51904,3.40039,3.38574-1.52539,3.38525-3.40039,3.38525ZM6.3252,6.94092c0,.76172-.62012,1.38135-1.38184,1.38135s-1.38135-.61963-1.38135-1.38135.61963-1.38135,1.38135-1.38135,1.38184.61963,1.38184,1.38135Z"/></svg>

<svg xmlns="http://www.w3.org/2000/svg" viewBox="0 0 24 24"><title>Camera</title><path d="M16.97174,3.25,15.25,1.24268A1.9255,1.9255,0,0,0,13.78711.5708H10.21289A1.9255,1.9255,0,0,0,8.75,1.24268L7.02826,3.25H1.25v17.5h21.5V3.25ZM9.88867,2.21924a.42712.42712,0,0,1,.32422-.14844h3.57422a.42712.42712,0,0,1,.32422.14844L14.99561,3.25H9.00439ZM21.25,19.25H2.75V4.75h18.5Z" fill="#171717"/><path d="M12,7.11426A4.88552,4.88552,0,1,0,16.90039,12,4.89868,4.89868,0,0,0,12,7.11426Zm0,8.271A3.38553,3.38553,0,1,1,15.40039,12,3.39664,3.39664,0,0,1,12,15.38526Z" fill="#171717"/><path d="M4.94336,5.55957A1.38135,1.38135,0,1,0,6.3252,6.94092,1.38286,1.38286,0,0,0,4.94336,5.55957Z" fill="#171717"/></svg>
